X:1
T:W.A. Mozart (1756-1791)
T:Via, resti servita
T:W.A. Mozart (1756-1791)
T:Le nozze de Figaro (KV 492) - Act 1-06
%%score 1 2 { ( 3 6 ) | ( 4 5 ) }
L:1/8
Q:1/4=120
M:4/4
K:A
V:1 treble nm="Susanna" snm="S."
V:2 treble nm="Marcellina" snm="M."
V:3 treble nm="Piano" snm="Pia."
V:6 treble 
V:4 bass 
V:5 bass 
V:1
 z8 | z8 | z8 | z8 | z8 | z8 | z2 z e e2 e e | e2 c e (ed) c B | A2 A2 z4 | z2 z B B2 B B | %10
w: ||||||Non~ so- no~si ar-|di- ta,~ Ma- da- * ma- pic-|can- te.~|No,~ no,~ toc- ca~a~|
 G2 z2 z4 | z2 z B B2 BB | G2 z2 z4 | z e e4 ^d e | ^d c c4 Bc | A2 G G A2 F F | E e e4 ^d e | %17
w: lei.~|No,~ no,~ toc\-ca~ a~|lei.~|Io~ so~i~ do~- ver|mie~- i, so~i~ do~- ver|mie- i,~ non~ fo~in ci- vil-|tà;~ io~ so~i~ do~- ver|
 ^d c c4 B c | B A A4 G A | F2 E E F2 ^D D | E2 z2 z4 | z8 | z8 | z2 z ^d d2 d d | e2 e2 z4 | z8 | %26
w: mie~- i, so~i~ do~- ver|mie~- i, so~i~ dor~- ver|mie- i,~ non~ fo~in ci- vil|tà.~|||La~ da- ma d'o-|no- re!~||
 z8 | z2 z e (ed) c B | A2 A2 z4 | z8 | c3/2 A/ A2 z4 | z4 z2 z e | c2 z2 z4 | z8 | z8 | %35
w: |Di~ Spa- * gna~ l'a-|mo- re!~||L'a- bi- to!~|L'e|tà!~|||
 z A e4 c A | e3/2 d/ c c c2 d B | A2 z2 z4 | z8 | z2 z f f2 e e | d2 d d d2 c c | B2 B2 z4 | z8 | %43
w: Si bil- la~ de~|cre- pi- ta da~ ri- der~ mi|fa.~||Non so- no~ si'ar-|di- ta,~ Ma- da- ma pic-|can te!~||
 z2 z B ^d2 d d | e2 e2 z4 | z8 | z2 z e (ed) c B | A2 A2 z4 | z8 | c3/2 A/ A2 z4 | z2 z2 z2 z e | %51
w: La~ da- ma d'o-|no- re!~||Di Spa- * gna l'a-|mo- re!||L'a bi- to!~|L'e|
 c2 z2 z4 | z8 | z2 z2 z2 z e | c2 z e c2 z e | c2 z2 z4 | z f f4 e f | e3/2 d/ d4 z B | %58
w: tà!~||l'e-|tà,~ l'e- tà,~ l'e-|tà!~|Si- bil- la~ de-|cre- pi- ta~ da|
 (3cBc (3de f (3efe (3dc B | A2 z2 z4 | z f f4 e f | e3/2 d/ d4 z B | (3cBc (3de f (3efe (3dc B | %63
w: ri- * * der,~ * da~ ri- * * der,~ * mi|fa,|Si- bil- la~ de-|cre- pi- ta~ da~|ri- * * der,~ * da~ ri- * * der,~ * mi|
 A A e4 c A | e3/2 d/ c c c2 d B | A A e4 c A | e3/2 d/ c c c2 d B | A2 f2 e2 g g | a2 f2 e2 G G | %69
w: fa,~ Si- bil- la~ de-|cre- pi- ta~ da~ ri- der~ mi~|fa,~ Si bil la~ de-|cre- pi- ta~- da~ ri- der~ mi~|fa,~ da~ ri- der~ mi~|fa,~ da~ ri- der~ mi~|
 A2 z2 z4 | z8 | z8 | z8 | z8 |] %74
w: fa.~|||||
V:2
 z8 | z8 | z8 | z2 z e e2 e e | e2 c e (ed) c B | A2 A2 z4 | z8 | z8 | z2 e2 e2 ^d c | B2 B2 z4 | %10
w: |||Via~ re- sti~ ser-|vi- ta,~ Ma- da- * ma bril-|lan- te.~|||No,~ pri- ma~a~ lei~|toc- ca.~|
 z2 e2 e2 ^d c | B2 B2 z4 | z e e4 ^d e | ^d c c2- c2 B c | B A A4 GA | F2 E E F2 ^D D | E2 z2 z4 | %17
w: No,~ pri- ma'a~ ~lei~|toc- ca.~|Io~ so'i~ do~- ver|miei,~ * so~i~ * do~- ver|mie~- i, so~i~ do~- ver|mie- i,~ non~ fo~in ci- vil-|tà;~|
 z e e4 ^d e | ^d c c4 B c | A2 G G A2 F F | E2 z2 z4 | z2 z B B2 B B | G2 G2 z4 | z8 | z8 | %25
w: io~ so~i~ do~- ver|mie~- i, so~i~ do~- ver|mie- i,~ non~ fo~in ci- vil|tà.~|La~ spo- sa~ no-|vel- la!~|||
 z2 z G G2 G B | A2 A2 z4 | z8 | z4 z2 z B | c3/2 A/ A2 z4 | z4 z2 z B | c2 A2 z4 | z A A4 G A | %33
w: Del~ Con- te~ la~|bel- la!~||I~|me- ri- ti!~|Il~|po- sto!~|Per~ Bac- co~ pre-|
 G3/2 F/ F4 z f | e2 z f c2 B B | A2 z2 z4 | z8 | z2 z A A2 B c | d2 e f =g2 e c | d2 d2 z4 | z8 | %41
w: ci- pi- to,~ se~an\-cor,~|* se~an~- cor res~- to|qua.~||Via~ re- sti~ ser-|vi- ta,~ Ma- da- ma- lanbril|lan- te!~||
 z8 | z2 z B B2 B B | G2 B2 z4 | z4 z2 z e | e4 G3 B | A2 A2 z4 | z4 z2 z B | c3/2 A/ A2 z4 | %49
w: |La~ spo- sa~ no-|vel- la!~|Del~|Con- te~ la~|bel- la!~|I~|me- ri- ti!|
 z4 z2 z B | c2 A2 z2 z2 | z A A4 G A | G3/2 F/ F4 z f | e2 z f c2 B B | A2 z2 z4 | z A A4 G A | %56
w: Il~|po sto!~|Per~ Bac- co,~ pre-|ci- pi- to,~ se~an-|cor,~ se~~ ancor res~- to|qua.|Per~ Bac- co,~ pre-|
 G3/2 F/ F4 z2 | z F B4 G3/2 G/ | A3/2 A/ A A c2 G3/2 G/ | A3/2 A/ A4 G A | G3/2 F/ F4 z2 | %61
w: ci- pi- to,~|Per~ Bac- co,~ pre-|ci- pi- to,~ se~~ ancor re sto~|qua,~ per~ Bac- co,~ pre-|ci pi- to,~|
 z F f4 G3/2 G/ | A3/2 A/ A A c2 G G | A2 z E A A z A | c/ c/ A z A A2 B G | A2 z E A A z A | %66
w: per~ Bac co,~ pre|ci pi to~ se~an~- cor re- sto|qua,~ per bac- co pre-|ci- pi- to~ se~an~- cor res~- to|qua,~ per~ Bac- co, pre-|
 c/ A/ A z A A2 B G | A2 d2 c2 B B | A2 d2 c2 B B | A2 z2 z4 | z8 | z8 | z8 | z8 |] %74
w: ci- pi- to~ se~an~- cor res~- to|qua,se~ an~- cor re~- sto|qua,se~ an~- cor res~- to|qua.~|||||
V:3
 (3EGB (3EGB (3EGB (3EGB | z2 z2 z2 e>e | (e3 f/)g/ a2 e>e | (e3 g/a/) b2 .e>e | ea.c.e ed.c.B | %5
 (e3 f/g/) a2 .e>e | (e3 g/a/) b2 .e>e | ea.c.e ed.c.B | (3.AcA (e4 ^d)c | B z b z b z b z | %10
 (3gbg (e4 ^d)c | B z b z b z b z | (3gee e4 ^de | (3^d[ce][ce] ([ce]4 [Bd])[ce] | .^d2 z2 z4 | %15
 (3[^DFA][DFA][DFA] (3[EG][EG][EG] (3[CFA][CFA][CFA] (3[B,DF][B,DF][B,DF] | (3Ee.e (e4 ^d)e | %17
 (3^d[ce][ce] ([ce]4 [Bd])[ce] | (3[B^d][Ac][Ac] ([Ac]4 [GB])[Ac] | %19
 (3[^DFA][DFA][DFA] (3[EG][EG][EG] (3[CFA][CFA][CFA] (3[B,DF][B,DF][B,DF] | (B3 c/)^d/ e2 .B>B | %21
 (B3 ^d/)e/ f2 .B>B | (B3 e/)f/ g2 .B>B | (B3 f/)g/ a2 .B>B | (B3 g/)a/ b2 .e>e | %25
 (e3 g/)a/ b2 .e>e | (e3 a/)b/ c'2 .e>e | (e3 b/)c'/ d'2 .e>e | (3eag (3agf (3edc (3Bcd | %29
 (3cag (3agf (3edc (3Bcd | (3cag (3agf (3edc (3Bcd | (3cag (3agf (3edc (3Bcd | (3cAA (A4 G)A | %33
 (3[F,DF][F,DF][F,DF] (3[F,DF][F,DF][F,DF] [Adf] z [Af] z | [Ae] z [Af] z [Ac] z [GB] z | [Ace-]8 | %36
 [ce]6 [GBeg]2 | (3[Aea]aA (A4 Bc) | d2 ef =g2 [ceac']2 | [dfad'] z f2- (3f=gf (3efe | %40
 (3ddd d2- (3ded (3cdc | B3 c/^d/ e2 .B>B | B3 ^d/e/ f2 .B>B | B(e/f/ g)B Bf/g/ aB | %44
 (B3 g/a/ b2) .e>e | e3 g/a/ b2 .e>e | e(a/b/ c')e e(b/c'/ d')e | (3eag (3agf (3edc (3Bcd | %48
 (3cag (3agf (3edc (3Bcd | (3cag (3agf (3edc (3Bcd | (3cag (3agf (3edc (3Bcd | (3cAA A4 GA | %52
 (3[A,DF][A,DF][A,DF] (3[A,DF][A,DF][A,DF] [A,DF] z [Af] z | [Ae] z [Af] z [Ac] z [GB] z | %54
 (3cde (3dcB (3cde (3dcB | A z a4 (a/g/f/g/) | z z f4 (f/e/d/e/) | d z f4 (a/g/f/)g/ | %58
 a z f z e z G z | A z a4 (a/g/f/)g/ | f z f4 (f/e/d/)e/ | d z d'4 (a/g/f/)g/ | a z f z e z G z | %63
 [Ac-]8 | (([ce]6 [GBeg]2)) | ([Aa]3 [ec']) ([Ae]3 [ca]) | ce A2- A[Ac][Bd][GB] | %67
 [CA] z [Adf] z [Ace] z [Bdg] z | [Ada] z [Adf] z [Ace] z .e>e | (e3 f/g/ a2) .e>e | %70
 (e3 g/a/ b2) .e>e | (ea/b/) c'e (eb/c'/ d').e | %72
 a z (3[cfa][cfa][cfa] (3[dfb][dfb][dfb] (3[Beg][Beg][Beg] | [cea] z [CEA]2 z4 |] %74
V:4
!p! E,4 D,4 | [C,E,]4 B,4 | A,4 z2 A,2 | (3B,DE (3B,DE (3B,DE (3B,DE | %4
 (3A,CE (3A,CE (3G,B,E (3G,B,E | (3A,CE (3A,CE (3A,CE (3A,CE | (3B,DE (3B,DE (3B,DE (3B,DE | %7
 (3A,CE (3A,CE (3G,B,E (3G,B,E | (3A,CE (3A,CE (3A,CE (3A,CE | (3G,B,E (3G,B,E (3F,A,B, (3F,A,B, | %10
 (3G,B,E (3G,B,E (3A,CE (3A,CE | (3G,B,E (3G,B,E (3F,A,B, (3F,A,B, | %12
 E,2 [E,,E,]2 [E,,E,]2 [E,,E,]2 | [E,,E,]2 [E,,E,]2 [E,,E,]2 [E,,E,]2 | %14
 [E,,E,]2 [E,,E,]2 [E,,E,]2 [E,,E,]2 | [B,,,B,,]2 [C,,C,]2 [A,,,A,,]2 [B,,,B,,]2 | %16
 [E,,E,]2 [E,,E,]2 [E,,E,]2 [E,,E,]2 | [E,,E,]2 [E,,E,]2 [E,,E,]2 [E,,E,]2 | %18
 [E,,E,]2 [E,,E,]2 [E,,E,]2 [E,,E,]2 | [B,,,B,,]2 [C,,C,]2 [A,,,A,,]2 [B,,,B,,]2 | %20
 (3G,B,E (3G,B,E (3G,B,E (3G,B,E | (3F,A,B, (3F,A,B, (3F,A,B, (3F,A,B, | %22
 (3E,G,B, (3E,G,B, (3E,G,C!f! (3E,G,C | (3^D,F,G, (3D,F,G, (3D,F,G, (3D,F,G, | %24
 (3E,G,B, (3E,G,B, (3E,G,B, (3E,G,B, | (3E,G,B, (3E,G,B, (3F,A,B, (3E,G,B, | %26
 (3E,A,C (3E,A,C (3E,A,C (3E,A,C | (3B,DE (3B,DE (3B,DE (3B,DE | (3CFE (3FED (3CB,A, (3G,A,B, | %29
 (3CFE (3FED (3CB,A, (3G,A,B, | (3CFE (3FED (3CB,A, (3G,A,B, | (3CFE (3FED (3CB,A, (3G,A,B, | %32
 (3A,CE (3A,CE (3A,CE (3A,CE | %33
!f! (3[D,,D,][D,,D,][D,,D,] (3[D,,D,][D,,D,][D,,D,]!p! [D,,D,] z [D,D] z | C z D z E z [E,,E,] z | %35
 [A,CE-]8 | [CE]6 D2 | (3CCE (3A,CE (3A,CE (3A,A,E | (3F,A,D (3F,A,!f!D (3A,CE (3E,=G,A, | %39
 (3F,A,D (3F,A,D (3F,A,D (3F,^A,C | (3D,F,B, (3D,F,B, (3D,F,B, (3F,A,C | %41
 (3G,B,E (3G,B,E (3G,B,E (3G,B,E | (3F,A,B, (3F,A,B, (3F,A,B, (3F,A,B, | %43
 (3E,G,B, (3E,G,B, (3^D,F,B, (3D,F,B, | (3E,G,B, (3E,G,B, (3E,G,B, (3E,G,B, | %45
 (3E,G,B, (3E,G,B, (3E,G,B, (3E,G,B, | (3E,A,C (3E,A,C (3B,DE (3B,DE | %47
 (3CFE (3FED (3CB,A, (3G,A,B, | (3A,FE (3FED (3CB,A, (3G,A,B, | (3A,FE (3FED (3CB,A, (3G,A,B, | %50
 (3A,FE (3FED (3CB,A, (3G,A,B, | (3A,CE (3A,CE (3A,CE (3A,CE | %52
 (3[D,,D,][D,,D,][D,,D,] (3[D,,D,][D,,D,][D,,D,] [D,,D,] z [D,D] z | [C,C] z [D,D] z [E,E] z E, z | %54
 (3A,B,C (3B,A,G, (3A,B,C (3B,A,!f!G, | (3A,!p!CA, (3F,A,C (3F,A,C (3E,A,C | %56
 (3D,A,D (3D,A,D (3D,A,D (3C,F,^A, | (3B,,F,B, (3B,,B,D (3D,B,D (3E,B,D | %58
 (3A,,A,C (3D,F,A, (3E,A,C (3E,B,D | (3A,C!p!A, (3F,A,C (3F,A,C (3E,A,C | %60
 (3D,A,D (3D,A,D (3D,A,D (3C,F,^A, | (3B,,F,B, (3B,,B,D (3D,B,D (3E,B,!f!D | %62
 (3A,,A,C (3D,F,A, (3E,A,C (3E,B,D | ([F,B,D]8 | ([CE]6) [DE]2) | %65
 [A,,A,][C,C] [A,,A,]3 [C,C] [A,,A,]2- | [A,,A,]C,A,,C, E,2 [E,,E,]2 | %67
!<(! [A,,A,] z [D,,D,] z [E,,E,] z!f! [E,,E,] z!<)! | [F,,F,] z [D,,D,] z [E,,E,] z [E,G,B,D] z | %69
 (3A,CE (3A,CE (3A,CE (3A,CE | (3B,DE (3B,DE (3B,DE (3B,DE | (3A,CE (3A,CE (3B,DE (3B,DE | %72
 [A,C] z (3[F,,F,][F,,F,][F,,F,] (3[D,,D,][D,,D,][D,,D,] (3[E,,E,][E,,E,][E,,E,] | %73
 [A,,,A,,] z [A,,A,]2 z4 |] %74
V:5
 E,8 | x8 | x8 | G,4 z2 G,2 | A,2 A,2 E,2 E,2 | A,2 A,2 A,2 A,2 | G,4 z2 G,2 | A,2 A,2 E,2 E,2 | %8
 A,2 A,2 A,2 A,2 | G,2 z2 (^D,4 | E,2) z2 A,2 A,2 | G,2 G,2 ^D,4 | x8 | x8 | x8 | x8 | x8 | x8 | %18
 x8 | x8 | E,4 z2 E,2 | ^D,4 z2 D,2 | E,2 E,2 E,2 E,2 | B,,4 z2 B,,2 | E,2 E,2 E,2 E,2 | %25
 =D,4 z2 D,2 | C,4 z2 C,2 | G,4 z2 G,2 | A,2 z2 z2 E,2 | A,2 z2 z2 E,2 | A,2 z2 z2 E,2 | %31
 A,2 z2 z2 E,2 | A,2 A,2 A,2 A,2 | x8 | x8 | x8 | A,4 E,4 | A,2 A,2 A,2 =G,2 | F,2 D,2 A,2 A,,2 | %39
 D,2 D,2 D,2 D,2 | D,2 D,2 D,2 ^D,2 | E,4 z2 E,2 | ^D,4 z2 D,2 | E,2 z2 B,,2 z2 | E,2 E,2 E,2 E,2 | %45
 =D,4 z2 D,2 | C,2 z2 G,2 z2 | A,2 z2 z2 E,2 | A,2 z2 z2 E,2 | A,2 z2 z2 E,2 | A,2 z2 z2 E,2 | %51
 A,2 A,2 A,2 A,2 | x8 | x8 | A, z E, z A, z E, z | x8 | x8 | x8 | x8 | z2 F,2 F,2 E,2 | %60
 D,2 D,2 D,2 C,2 | B,, z B,, z D, z E, z | x z D, z E, z E, z | x8 | (A,4 G,4) | x8 | x8 | x8 | %68
 x8 | x8 | G,2 G,2 G,2 G,2 | z2 z2 G,2 G,2 | x8 | x8 |] %74
V:6
 x8 | (3EAc (3EAc (3DE!p!G (3DEG | (3CEA (3CEA (3CEA (3CEA | x8 | x8 | x8 | x8 | x8 | x8 | x8 | %10
 x8 | x8 | x8 | x8 | (3B[Ac][Ac] [Ac]4 [GB][Ac] | x8 | x8 | x8 | x8 | x8 | x8 | x8 | x8 | x8 | x8 | %25
 x8 | x8 | x8 | x8 | x8 | x8 | x8 | x8 | x8 | x8 | x8 | A6 x2 | x8 | x8 | x8 | x8 | x8 | x8 | x8 | %44
 x8 | x8 | x8 | x8 | x8 | x8 | x8 | x8 | x8 | x8 | E8 | x8 | x8 | x8 | x8 | x8 | x8 | x8 | x8 | %63
 z4 e4 | A6 x2 | x8 | x8 | x8 | x8 | x8 | x8 | x8 | x8 | x8 |] %74

